X:18056
T:Up in the Air
M:6/8
L:1/8
K:B Dorian
FBB BAB|cBc AFE|FBB BAB|cBA B3|!
FBB BAB|cBc ABc|def edB|FBA B3:|!
d3 e3|fdA BAB|d3 e3|fdA B3|!
d3 e3|fgf ede|fgf edB|FBA B3:|!
